X:1
T:Saxony (Kirkpatrick), CM
T:Saxony (Kirkpatrick), CM
T:William James Kirkpatrick, 1900
T:Public Domain Courtesy of the Cyber Hymnal™
C:William James Kirkpatrick, 1900
Z:Public Domain
Z:Courtesy of the Cyber Hymnal™
%%score ( 1 2 ) ( 3 4 )
L:1/8
Q:1/4=125
M:3/4
K:Ab
V:1 treble 
V:2 treble 
V:3 bass 
V:4 bass 
V:1
 [CE]2 | ([CE]2 [EA]2) [EB]2 | [Ec]4 [_Gc]2 | (d2 A2) [_FB]2 | [Ec]4 [Ec]2 | (c2 B2) [_DF]2 | %6
 [EG]4 [=DA]2 | [DB]6- | [DB]4 [DE]2 | ([CE]2 [EA]2) [EB]2 | [Ec]4 [_Ge]2 | (e2 d2) [FA]2 | %12
 [Ec]4 [Ec]2 | (c2 B2) [_DF]2 | ([DG]2 [Ec]2) [DB]2 | [CA]6- | [CA]4 |] %17
V:2
 x2 | x6 | x6 | _F4 x2 | x6 | =D4 x2 | x6 | x6 | x6 | x6 | x6 | F4 x2 | x6 | =D4 x2 | x6 | x6 | %16
 x4 |] %17
V:3
 [A,,A,]2 | A,4 [E,G,]2 | A,4 A,2 | [D,A,]4 [D,A,]2 | [A,,A,]4 [A,,A,]2 | [B,,F,]4 [B,,B,]2 | %6
 [E,B,]4 [F,B,]2 | [G,B,]6- | [G,B,]4 [E,G,]2 | A,4 [E,G,]2 | A,4 [C,A,]2 | [B,,A,]4 [D,A,]2 | %12
 [A,,A,]4 [A,,A,]2 | [B,,A,]4 [B,,A,]2 | (B,2 A,2) [E,G,]2 | [A,,A,]6- | [A,,A,]4 |] %17
V:4
 x2 | (A,,2 C,2) x2 | A,4 A,2 | x6 | x6 | x6 | x6 | x6 | x6 | (A,,2 C,2) x2 | A,4 x2 | x6 | x6 | %13
 x6 | E,4 x2 | x6 | x4 |] %17

